!!!ONB: MCCC : IFS0820_02 : Extracted Monophonic Melody
!!!COM: Schubert, Franz
!!!OPR: Violin Sonata (No.1) in D major
!!!OMV: 2
!!!SCT: D.384 (published as Op.posth.137 No.1)
!!!ODT: 1816///
**kern
*staff1
*clefG2
*k[f#c#g#d#]
*E:
*M2/4
16.cc#
32dd
=2
8ee
8ee
8ee
8ee
=3
48ee
48aa
12aa[
16aa]
16ee
4cc#
=4
24cc#
12ee[
16ee]
16cc#
4a
=5
4b
16.cc#
32dd
16.ee
32cc#
=6
4r
8r
16.c#
32d
=7
8e
8e
8e
8e
=8
48e
48a
12a[
16a]
16e
4c#
=9
48c#
48e
12e[
16e]
16c#
4A
=10
4c#
48c#
16B
24A
16.B
32c#
=11
4A
4r
=12
8ee
8ee
8ee
8ee
=13
16ee
48ff#
48ee
48dd#
16ee
16ff#
4gg#
=14
16gg#
48aa
48gg#
48ff#
16gg#
16aa
4bb
=15
4gg#
48gg#
16ff#[
24ff#]
16.ff#
32gg#
=16
16ee
16dd#
16ff#
16ee
16ee
16dd
16.cc#
32dd
=17
8ee
8ee
8ee
8ee
=18
48ee
48aa
12aa[
16aa]
16ee
4cc#
=19
24cc#
12ee[
16ee]
16cc#
4a
=20
4cc#
48cc#
16b[
24b]
16.b
32cc#
=21
4r
8r
16.c#
32d#
=22
8e
8e
8e
8e
=23
16e
48f#
48e
48d#
16e
16f#
4g#
=24
16g#
48a
48g#
48f#
16g#
16a
4b
=25
4g#
48g#
16f#[
24f#]
16.f#
32g#
=26
4e
8r
16.c#
32d
=27
8e
8e
8e
8e
=28
48e
48a
12a[
16a]
16e
4c#
=29
48c#
48e
12e[
16e]
16c#
4A
=30
4c#
48c#
16B
24c#
8r
=31
4A
4r
=32
4ee
4ee#
=33
8.dd##
32ee#
32ee
16dd
16b#
16b
16a
=34
4b
8dd
8b#
=35
4a##
8b#
8dd
=36
4ee
8gg
8ee#
=37
4ee
16dd
16b#
24a##
24b#
24a
=38
8.g
16b#
8ee
8dd
=39
4dd
4b#
=40
4dd
4ee
=41
4.ee#
16.a
32b
=42
4b#
4dd
=43
4ee
16.ee[
32ee]
16.b#
32b
=44
4a
4dd
=45
4b
8b#
8dd
=46
4ee
8gg
8ee#
=47
8.dd##
32ee#
32ee
16dd
16b#
16b
16a
=48
4b
8dd
8g#
=49
4b
4a
=50
4ee
8gg
8cc#
=51
4ee
4dd
=52
4ee
8aa
8ee
=53
4gg
4ee#
=54
8r
8b#
8dd#
8a
=55
8r
8a#
8dd
8g
=56
8r
8dd
16ee#
16ee
16ee
16dd
=57
8dd
8cc#
4cc#
=58
8r
8ee
8gg
8cc#
=59
8r
8ee#
8aa
8dd
=60
8r
8aa
16bb#
16bb
16bb
16aa
=61
8.aa
16gg#
4gg#
=62
8r
8a
8e
8c#
=63
16A
16c#
16e
16g#
16a
16cc#
16ee
16cc#
=64
16a
16g#
16a
16e
16c#
16e
16c#
16A
=65
16e
16d#
16e
16d
16c#
16B
16A
16c#
=66
16e
16f#
16e
16d#
16e
16d
16c#
16B
=67
8A
8a
8e
8c#
=68
16A
16c#
16e
16g#
16a
16cc#
16ee
16cc#
=69
16a
16g#
16a
16e
16c#
16e
16c#
16A
=70
16e
16f#
16e
16d#
8e
8e
=71
16e
16f#
16g#
16e
4a
=72
16r
16e
16ee
16e
16ee
16e
16ee
16e
=73
16e
16g#
16b
16dd#
16ee
16gg#
16bb
16gg#
=74
16ee
16b
16g#
16b
16e
16B
16G#
16A
=75
16B
16e
16g#
16b
16B
16d#
16f#
16b
=76
16B
16c#
16d#
16B
16e
16d
16c#
16B
=77
8A
8a
8e
8c#
=78
16A
16c#
16e
16g#
16a
16cc#
16ee
16cc#
=79
16a
16g#
16a
16e
16c#
16e
16c#
16A
=80
16e
16f#
16e
16d#
8e
8e
=81
16e
16f#
16g#
16e
16a
16cc#
16ee
16gg#
=82
8aa
8cc#
8cc#
8cc#
=83
16dd
48ee
48dd
48ee
16dd
16ee
4ff#
=84
16g#
48a
48g#
48f#
16g#
16b
16ee
16dd
16cc#
16b
=85
8a
8c#
8c#
8c#
=86
16d
48e
48d
48c#
16d
16e
4f#
=87
16G#
48A
48G#
48F#
16G#
16B
16e
16d
16c#
16B
=88
4B
4A
==
*-
